!! 00000] TT[00
!! NN
!!!OTL: Kehen guizi toule wode da yandai
!!!ARE: Asia, China,ÿHebei, Xingtai
!! Ethnic Group: Han
!! IV, 41
!!!SCT: C0371
!!!YEM: Copyright 1995, estate of Helmut Schaffrath.
**kern
*ICvox
*Ivox
*M2/4
*k[]
*C:
{8ee
16ee
16dd
8cc
8dd
=1
8a
16cc
16a
8g
8g
=2
8ee
16ee
16dd
8cc
16a
16cc
=3
2dd}
=4
{8ee
16ee
16dd
8cc
8dd
=5
8a
16cc
16a
8g
8g
=6
16a
16cc
16a
16g
8e
8g
=7
2d}
=8
{4.dd
8ee
=9
8cc
16b
16a
4g
=10
8f
8e
4g
=11
8ee
8dd
4r}
==
!!!AGN: Xiaodiao. Geming lishi minge
!! nicht sehr typisch, aber das Lied wurde in vielen Zeitschriften -
!!    Artkeln beschrieben. Es hat einen sehr ironischen Text. Eher
!!    Kunstlied.
!!    Vereinzelt Verzierungen.
!!!ONB: ESAC (Essen Associative Code) Database: CHINA
!!!AMT: simple duple
!!!AIN: vox
!!!EED: Helmut Schaffrath
!!!EEV: 1.0
*-
